X:1
T:Title
%%score 1 2 3
L:1/8
M:3/2
K:C
V:1 treble nm="Part_1"
V:2 treble-8 nm="Part_2"
V:3 treble-8 nm="Part_3"
V:1
 G8 E4 | F6 E4 D2 | D4 E2 G4 ^F2 | G4 z4 G4 | A6 G2 G4 | F4 D2 E4 D2 | G2 A4 G2 F2 E2 | G4 z4 F4 | %8
 A6 G2 A2 B2 | c3 A B2 c3 B d2- | dc B3 A A3 ^GG^F | A4 z4 A4 | G4 F6 E2 | F2 G2 E2 G2 ^F2 E2 | %14
 G12 | z4 z4 G4 | G4 c6 A2 | B2 c2 d2 d3 ccB | d2 z2 e6 d2 | d6 ^c2 c2 B2 | d12 | z12 | z12 | z12 | %24
 z4 z4 d4 | c2 B4 c2 _B2 A2- | A2 _B2 A2 G4 ^F2 | G4 z4 G4 | G4 F2 D2 E4 | D4 G6 F2 | A4 _B6 A2 | %31
 G6 G2 ^F2 E2 | G12 |] %33
V:2
 G8 c4 | d6 c4 B2 | d4 B2 G2 A4 | G8 E4 | F6 E2 E4 | D4 G6 A2 | B4 c4 A4 | G8 D4 | F8 F2 G2 | %9
 A4 G2 A2 F4 | G2 d4 c2 B4 | A8 d4 | e4 d6 c2 | _B2 G4 B2 A4 | G12- | G8 G4 | c12 | d8 e4 | d4 g8 | %19
 f4 e8 | d4 z4 d4- | d2 e2 f6 e2 | d2 c2 B4 c4 | A4 G2 A2 F2 E2 | G12 | z12 | z12 | z4 z4 G4 | %28
 _B4 c2 d2 c2 B2 | d4 _e6 d2 | d8 G4 | c4 _B2 G2 A4 | G12 |] %33
V:3
 d8 A4 | D6 A4 z2 | D2 G4 G2 D4 | d8 e4 | c8 c4 | d4 B4 G4 | z2 d2 e4 c2 B2 | d12 | c12 | z12 | %10
 z4 z4 d4 | e8 f4 | c4 d2 _B4 c2 | d4 G4 D4 | d12- | d12 | e8 c4 | G8 g4 | f4 c8 | d4 A8 | D12- | %21
 D12 | F4 G4 C4 | c4 B2 c2 A4 | G2 B4 c2 d4 | e4 d2 e2 d4 | c2 d4 _B2 A4 | G12 | z4 z4 A4 | D4 C8 | %30
 F4 G4 z4 | C4 G4 D4 | d12 |] %33

